plasma/desktoptheme/Qogir/icons/manjaro.svg

<svg id="svg" width="22" height="22" version="1.1" xmlns="http://www.w3.org/2000/svg">
 <defs>
  <style id="current-color-scheme" type="text/css">.ColorScheme-Text { color:#5c616c; }</style>
  <style type="text/css"/>
 </defs>
 <g id="22-22-manjaro-settings-manager">
  <rect width="22" height="22" fill-opacity="0"/>
  <path class="ColorScheme-Text" d="m9 9v10h4v-10h-4z" fill="currentColor"/>
  <path class="ColorScheme-Text" d="m4.9512 3a2 2 0 0 0-0.11914 0.0078125 2 2 0 0 0-0.11914 0.013672 2 2 0 0 0-0.11719 0.019531 2 2 0 0 0-0.11523 0.027344 2 2 0 0 0-0.11328 0.035156 2 2 0 0 0-0.11133 0.041016 2 2 0 0 0-0.10938 0.046875 2 2 0 0 0-0.10547 0.054688 2 2 0 0 0-0.10352 0.058594 2 2 0 0 0-0.099609 0.066406 2 2 0 0 0-0.09375 0.072266 2 2 0 0 0-0.089844 0.078125 2 2 0 0 0-0.085938 0.082031 2 2 0 0 0-0.080078 0.087891 2 2 0 0 0-0.076172 0.091797 2 2 0 0 0-0.068359 0.095703 2 2 0 0 0-0.064453 0.10156 2 2 0 0 0-0.056641 0.10352 2 2 0 0 0-0.052734 0.10742 2 2 0 0 0-0.044922 0.10938 2 2 0 0 0-0.037109 0.11328 2 2 0 0 0-0.03125 0.11523 2 2 0 0 0-0.025391 0.11523 2 2 0 0 0-0.017578 0.11914 2 2 0 0 0-0.0097657 0.11719 2 2 0 0 0-0.0039062 0.11914v12.049a2 2 0 0 0 0.0078125 0.11914 2 2 0 0 0 0.013672 0.11914 2 2 0 0 0 0.019531 0.11719 2 2 0 0 0 0.027344 0.11523 2 2 0 0 0 0.035156 0.11328 2 2 0 0 0 0.041016 0.11133 2 2 0 0 0 0.046875 0.10938 2 2 0 0 0 0.054688 0.10547 2 2 0 0 0 0.058594 0.10352 2 2 0 0 0 0.066406 0.099609 2 2 0 0 0 0.072266 0.09375 2 2 0 0 0 0.078125 0.089844 2 2 0 0 0 0.082031 0.085938 2 2 0 0 0 0.087891 0.080078 2 2 0 0 0 0.091797 0.076172 2 2 0 0 0 0.095703 0.068359 2 2 0 0 0 0.10156 0.064453 2 2 0 0 0 0.10352 0.056641 2 2 0 0 0 0.10742 0.052734 2 2 0 0 0 0.10938 0.044922 2 2 0 0 0 0.11328 0.037109 2 2 0 0 0 0.11523 0.03125 2 2 0 0 0 0.11523 0.025391 2 2 0 0 0 0.11914 0.017578 2 2 0 0 0 0.11719 0.009766 2 2 0 0 0 0.11914 0.003906h3v-11h5v-5h-8.0488zm9.0488 0v16h3.0488a2 2 0 0 0 0.11914-0.007812 2 2 0 0 0 0.11914-0.013672 2 2 0 0 0 0.11719-0.019532 2 2 0 0 0 0.11523-0.027343 2 2 0 0 0 0.11328-0.035157 2 2 0 0 0 0.11133-0.041015 2 2 0 0 0 0.10938-0.046875 2 2 0 0 0 0.10547-0.054688 2 2 0 0 0 0.10352-0.058594 2 2 0 0 0 0.099609-0.066406 2 2 0 0 0 0.09375-0.072265 2 2 0 0 0 0.089844-0.078125 2 2 0 0 0 0.085938-0.082032 2 2 0 0 0 0.080078-0.08789 2 2 0 0 0 0.076172-0.091797 2 2 0 0 0 0.068359-0.095703 2 2 0 0 0 0.064453-0.10156 2 2 0 0 0 0.056641-0.10352 2 2 0 0 0 0.052734-0.10742 2 2 0 0 0 0.044922-0.10938 2 2 0 0 0 0.037109-0.11328 2 2 0 0 0 0.03125-0.11524 2 2 0 0 0 0.025391-0.11523 2 2 0 0 0 0.017578-0.11914 2 2 0 0 0 0.009766-0.11719 2 2 0 0 0 0.003906-0.11914v-12.049a2 2 0 0 0-0.007812-0.11914 2 2 0 0 0-0.013672-0.11914 2 2 0 0 0-0.019532-0.11719 2 2 0 0 0-0.027343-0.11523 2 2 0 0 0-0.035157-0.11328 2 2 0 0 0-0.041015-0.11133 2 2 0 0 0-0.046875-0.10938 2 2 0 0 0-0.054688-0.10547 2 2 0 0 0-0.058594-0.10352 2 2 0 0 0-0.066406-0.099609 2 2 0 0 0-0.072265-0.09375 2 2 0 0 0-0.078125-0.089844 2 2 0 0 0-0.082032-0.085938 2 2 0 0 0-0.08789-0.080078 2 2 0 0 0-0.091797-0.076172 2 2 0 0 0-0.095703-0.068359 2 2 0 0 0-0.10156-0.064453 2 2 0 0 0-0.10352-0.056641 2 2 0 0 0-0.10742-0.052734 2 2 0 0 0-0.10938-0.044922 2 2 0 0 0-0.11328-0.037109 2 2 0 0 0-0.11524-0.03125 2 2 0 0 0-0.11523-0.025391 2 2 0 0 0-0.11914-0.017578 2 2 0 0 0-0.11719-0.0097657 2 2 0 0 0-0.11914-0.0039062h-3z" fill="currentColor"/>
 </g>
 <g id="manjaro-settings-manager">
  <rect x="-5" y="-39" width="32" height="32" ry=".64" fill-opacity="0"/>
  <path class="ColorScheme-Text" d="m8-26v15h6v-15h-6z" fill="currentColor"/>
  <path class="ColorScheme-Text" d="m0.95117-35a2 2 0 0 0-0.11914 0.007812 2 2 0 0 0-0.11914 0.013672 2 2 0 0 0-0.11719 0.019532 2 2 0 0 0-0.11523 0.027343 2 2 0 0 0-0.11328 0.035157 2 2 0 0 0-0.11133 0.041015 2 2 0 0 0-0.10938 0.046875 2 2 0 0 0-0.10547 0.054688 2 2 0 0 0-0.10352 0.058594 2 2 0 0 0-0.099609 0.066406 2 2 0 0 0-0.09375 0.072265 2 2 0 0 0-0.089844 0.078125 2 2 0 0 0-0.085938 0.082032 2 2 0 0 0-0.080078 0.08789 2 2 0 0 0-0.076172 0.091797 2 2 0 0 0-0.068359 0.095703 2 2 0 0 0-0.064453 0.10156 2 2 0 0 0-0.056641 0.10352 2 2 0 0 0-0.052734 0.10742 2 2 0 0 0-0.044922 0.10938 2 2 0 0 0-0.037109 0.11328 2 2 0 0 0-0.03125 0.11524 2 2 0 0 0-0.025391 0.11523 2 2 0 0 0-0.017578 0.11914 2 2 0 0 0-0.0097656 0.11719 2 2 0 0 0-0.0039062 0.11914v20.049a2 2 0 0 0 0.0078125 0.11914 2 2 0 0 0 0.013672 0.11914 2 2 0 0 0 0.019531 0.11719 2 2 0 0 0 0.027344 0.11523 2 2 0 0 0 0.035156 0.11328 2 2 0 0 0 0.041016 0.11133 2 2 0 0 0 0.046875 0.10938 2 2 0 0 0 0.054688 0.10547 2 2 0 0 0 0.058594 0.10352 2 2 0 0 0 0.066406 0.099609 2 2 0 0 0 0.072266 0.09375 2 2 0 0 0 0.078125 0.089844 2 2 0 0 0 0.082031 0.085938 2 2 0 0 0 0.087891 0.080078 2 2 0 0 0 0.091797 0.076172 2 2 0 0 0 0.095703 0.068359 2 2 0 0 0 0.10156 0.064453 2 2 0 0 0 0.10352 0.056641 2 2 0 0 0 0.10742 0.052734 2 2 0 0 0 0.10938 0.044922 2 2 0 0 0 0.11328 0.037109 2 2 0 0 0 0.11523 0.03125 2 2 0 0 0 0.11523 0.025391 2 2 0 0 0 0.11914 0.017578 2 2 0 0 0 0.11719 0.009766 2 2 0 0 0 0.11914 0.003906h5v-17h8v-7h-13.049zm15.049 0v24h5.0488a2 2 0 0 0 0.11914-0.007812 2 2 0 0 0 0.11914-0.013672 2 2 0 0 0 0.11719-0.019532 2 2 0 0 0 0.11523-0.027343 2 2 0 0 0 0.11328-0.035157 2 2 0 0 0 0.11133-0.041015 2 2 0 0 0 0.10938-0.046875 2 2 0 0 0 0.10547-0.054688 2 2 0 0 0 0.10352-0.058594 2 2 0 0 0 0.099609-0.066406 2 2 0 0 0 0.09375-0.072265 2 2 0 0 0 0.089844-0.078125 2 2 0 0 0 0.085938-0.082032 2 2 0 0 0 0.080078-0.08789 2 2 0 0 0 0.076172-0.091797 2 2 0 0 0 0.068359-0.095703 2 2 0 0 0 0.064453-0.10156 2 2 0 0 0 0.056641-0.10352 2 2 0 0 0 0.052734-0.10742 2 2 0 0 0 0.044922-0.10938 2 2 0 0 0 0.037109-0.11328 2 2 0 0 0 0.03125-0.11524 2 2 0 0 0 0.025391-0.11523 2 2 0 0 0 0.017578-0.11914 2 2 0 0 0 0.009766-0.11719 2 2 0 0 0 0.003906-0.11914v-20.049a2 2 0 0 0-0.007812-0.11914 2 2 0 0 0-0.013672-0.11914 2 2 0 0 0-0.019532-0.11719 2 2 0 0 0-0.027343-0.11523 2 2 0 0 0-0.035157-0.11328 2 2 0 0 0-0.041015-0.11133 2 2 0 0 0-0.046875-0.10938 2 2 0 0 0-0.054688-0.10547 2 2 0 0 0-0.058594-0.10352 2 2 0 0 0-0.066406-0.099609 2 2 0 0 0-0.072265-0.09375 2 2 0 0 0-0.078125-0.089844 2 2 0 0 0-0.082032-0.085938 2 2 0 0 0-0.08789-0.080078 2 2 0 0 0-0.091797-0.076172 2 2 0 0 0-0.095703-0.068359 2 2 0 0 0-0.10156-0.064453 2 2 0 0 0-0.10352-0.056641 2 2 0 0 0-0.10742-0.052734 2 2 0 0 0-0.10938-0.044922 2 2 0 0 0-0.11328-0.037109 2 2 0 0 0-0.11524-0.03125 2 2 0 0 0-0.11523-0.025391 2 2 0 0 0-0.11914-0.017578 2 2 0 0 0-0.11719-0.009766 2 2 0 0 0-0.11914-0.003906h-5z" fill="currentColor"/>
 </g>
 <g id="16-16-manjaro-settings-manager">
  <rect x="3" y="27" width="16" height="16" fill="none"/>
  <path class="ColorScheme-Text" d="m5 29v12h3v-9h5v-3zm4 4v8h4v-8zm5-4v12h3v-12z" fill="currentColor"/>
 </g>
</svg>

<?xml version="1.0" encoding="UTF-8" standalone="no"?>
<svg
   id="svg"
   width="22"
   height="22"
   version="1.1"
   sodipodi:docname="manjaro.svg"
   inkscape:version="1.2 (dc2aedaf03, 2022-05-15)"
   xmlns:inkscape="http://www.inkscape.org/namespaces/inkscape"
   xmlns:sodipodi="http://sodipodi.sourceforge.net/DTD/sodipodi-0.dtd"
   xmlns="http://www.w3.org/2000/svg"
   xmlns:svg="http://www.w3.org/2000/svg">
  <sodipodi:namedview
     id="namedview27"
     pagecolor="#ffffff"
     bordercolor="#666666"
     borderopacity="1.0"
     inkscape:showpageshadow="2"
     inkscape:pageopacity="0.0"
     inkscape:pagecheckerboard="0"
     inkscape:deskcolor="#d1d1d1"
     showgrid="true"
     inkscape:zoom="15.170655"
     inkscape:cx="-2.4059608"
     inkscape:cy="16.479183"
     inkscape:window-width="1920"
     inkscape:window-height="1008"
     inkscape:window-x="0"
     inkscape:window-y="0"
     inkscape:window-maximized="1"
     inkscape:current-layer="svg">
    <inkscape:grid
       type="xygrid"
       id="grid256" />
  </sodipodi:namedview>
  <defs
     id="defs5">
    <style
       id="current-color-scheme"
       type="text/css">.ColorScheme-Text { color:#5c616c; }</style>
    <style
       type="text/css"
       id="style3" />
  </defs>
  <g
     id="22-22-manjaro-settings-manager">
    <rect
       width="22"
       height="22"
       fill-opacity="0"
       id="rect7" />
    <path
       id="path9"
       class="ColorScheme-Text"
       d="M 9 9 L 9 19 L 13 19 L 13 9 L 9 9 z M 10 10 L 12 10 L 12 18 L 10 18 L 10 10 z "
       fill="currentColor" />
    <path
       id="path504"
       class="ColorScheme-Text"
       d="M 4.9511719 3 A 2 2 0 0 0 4.8320312 3.0078125 A 2 2 0 0 0 4.7128906 3.0214844 A 2 2 0 0 0 4.5957031 3.0410156 A 2 2 0 0 0 4.4804688 3.0683594 A 2 2 0 0 0 4.3671875 3.1035156 A 2 2 0 0 0 4.2558594 3.1445312 A 2 2 0 0 0 4.1464844 3.1914062 A 2 2 0 0 0 4.0410156 3.2460938 A 2 2 0 0 0 3.9375 3.3046875 A 2 2 0 0 0 3.8378906 3.3710938 A 2 2 0 0 0 3.7441406 3.4433594 A 2 2 0 0 0 3.6542969 3.5214844 A 2 2 0 0 0 3.5683594 3.6035156 A 2 2 0 0 0 3.4882812 3.6914062 A 2 2 0 0 0 3.4121094 3.7832031 A 2 2 0 0 0 3.34375 3.8789062 A 2 2 0 0 0 3.2792969 3.9804688 A 2 2 0 0 0 3.2226562 4.0839844 A 2 2 0 0 0 3.1699219 4.1914062 A 2 2 0 0 0 3.125 4.3007812 A 2 2 0 0 0 3.0878906 4.4140625 A 2 2 0 0 0 3.0566406 4.5292969 A 2 2 0 0 0 3.03125 4.6445312 A 2 2 0 0 0 3.0136719 4.7636719 A 2 2 0 0 0 3.0039062 4.8808594 A 2 2 0 0 0 3 5 L 3 17.048828 A 2 2 0 0 0 3.0078125 17.167969 A 2 2 0 0 0 3.0214844 17.287109 A 2 2 0 0 0 3.0410156 17.404297 A 2 2 0 0 0 3.0683594 17.519531 A 2 2 0 0 0 3.1035156 17.632812 A 2 2 0 0 0 3.1445312 17.744141 A 2 2 0 0 0 3.1914062 17.853516 A 2 2 0 0 0 3.2460938 17.958984 A 2 2 0 0 0 3.3046875 18.0625 A 2 2 0 0 0 3.3710938 18.162109 A 2 2 0 0 0 3.4433594 18.255859 A 2 2 0 0 0 3.5214844 18.345703 A 2 2 0 0 0 3.6035156 18.431641 A 2 2 0 0 0 3.6914062 18.511719 A 2 2 0 0 0 3.7832031 18.587891 A 2 2 0 0 0 3.8789062 18.65625 A 2 2 0 0 0 3.9804688 18.720703 A 2 2 0 0 0 4.0839844 18.777344 A 2 2 0 0 0 4.1914062 18.830078 A 2 2 0 0 0 4.3007812 18.875 A 2 2 0 0 0 4.4140625 18.912109 A 2 2 0 0 0 4.5292969 18.943359 A 2 2 0 0 0 4.6445312 18.96875 A 2 2 0 0 0 4.7636719 18.986328 A 2 2 0 0 0 4.8808594 18.996094 A 2 2 0 0 0 5 19 L 8 19 L 8 8 L 13 8 L 13 3 L 4.9511719 3 z M 14 3 L 14 19 L 17.048828 19 A 2 2 0 0 0 17.167969 18.992188 A 2 2 0 0 0 17.287109 18.978516 A 2 2 0 0 0 17.404297 18.958984 A 2 2 0 0 0 17.519531 18.931641 A 2 2 0 0 0 17.632812 18.896484 A 2 2 0 0 0 17.744141 18.855469 A 2 2 0 0 0 17.853516 18.808594 A 2 2 0 0 0 17.958984 18.753906 A 2 2 0 0 0 18.0625 18.695312 A 2 2 0 0 0 18.162109 18.628906 A 2 2 0 0 0 18.255859 18.556641 A 2 2 0 0 0 18.345703 18.478516 A 2 2 0 0 0 18.431641 18.396484 A 2 2 0 0 0 18.511719 18.308594 A 2 2 0 0 0 18.587891 18.216797 A 2 2 0 0 0 18.65625 18.121094 A 2 2 0 0 0 18.720703 18.019531 A 2 2 0 0 0 18.777344 17.916016 A 2 2 0 0 0 18.830078 17.808594 A 2 2 0 0 0 18.875 17.699219 A 2 2 0 0 0 18.912109 17.585938 A 2 2 0 0 0 18.943359 17.470703 A 2 2 0 0 0 18.96875 17.355469 A 2 2 0 0 0 18.986328 17.236328 A 2 2 0 0 0 18.996094 17.119141 A 2 2 0 0 0 19 17 L 19 4.9511719 A 2 2 0 0 0 18.992188 4.8320312 A 2 2 0 0 0 18.978516 4.7128906 A 2 2 0 0 0 18.958984 4.5957031 A 2 2 0 0 0 18.931641 4.4804688 A 2 2 0 0 0 18.896484 4.3671875 A 2 2 0 0 0 18.855469 4.2558594 A 2 2 0 0 0 18.808594 4.1464844 A 2 2 0 0 0 18.753906 4.0410156 A 2 2 0 0 0 18.695312 3.9375 A 2 2 0 0 0 18.628906 3.8378906 A 2 2 0 0 0 18.556641 3.7441406 A 2 2 0 0 0 18.478516 3.6542969 A 2 2 0 0 0 18.396484 3.5683594 A 2 2 0 0 0 18.308594 3.4882812 A 2 2 0 0 0 18.216797 3.4121094 A 2 2 0 0 0 18.121094 3.34375 A 2 2 0 0 0 18.019531 3.2792969 A 2 2 0 0 0 17.916016 3.2226562 A 2 2 0 0 0 17.808594 3.1699219 A 2 2 0 0 0 17.699219 3.125 A 2 2 0 0 0 17.585938 3.0878906 A 2 2 0 0 0 17.470703 3.0566406 A 2 2 0 0 0 17.355469 3.03125 A 2 2 0 0 0 17.236328 3.0136719 A 2 2 0 0 0 17.119141 3.0039062 A 2 2 0 0 0 17 3 L 14 3 z M 5 4 L 12 4 L 12 7 L 7 7 L 7 18 L 5 18 C 4.4460018 18 4 17.553997 4 17 L 4 5 C 4 4.4460018 4.4460018 4 5 4 z M 15 4 L 17 4 C 17.553997 4 18 4.4460018 18 5 L 18 17 C 18 17.553997 17.553997 18 17 18 L 15 18 L 15 9 L 15 7 L 15 4 z "
       fill="currentColor" />
    <path
       id="path11"
       class="ColorScheme-Text"
       d="M 5 4 C 4.4460018 4 4 4.4460018 4 5 L 4 17 C 4 17.553997 4.4460018 18 5 18 L 7 18 L 7 7 L 12 7 L 12 4 L 5 4 z M 15 4 L 15 7 L 15 9 L 15 18 L 17 18 C 17.553997 18 18 17.553997 18 17 L 18 5 C 18 4.4460018 17.553997 4 17 4 L 15 4 z "
       style="opacity:0.15"
       fill="currentColor" />
    <path
       class="ColorScheme-Text"
       d="m 10,10 v 8 h 2 v -8 z"
       fill="currentColor"
       id="path510"
       style="opacity:0.15" />
  </g>
  <g
     id="manjaro-settings-manager">
    <rect
       x="-5"
       y="-39"
       width="32"
       height="32"
       ry=".64"
       fill-opacity="0"
       id="rect14" />
    <path
       id="path16"
       class="ColorScheme-Text"
       d="M 8 -26 L 8 -11 L 14 -11 L 14 -26 L 8 -26 z M 9 -25 L 13 -25 L 13 -12 L 9 -12 L 9 -25 z "
       fill="currentColor" />
    <path
       id="path18"
       class="ColorScheme-Text"
       d="M 0.95117188 -35 A 2 2 0 0 0 0.83203125 -34.992188 A 2 2 0 0 0 0.71289062 -34.978516 A 2 2 0 0 0 0.59570312 -34.958984 A 2 2 0 0 0 0.48046875 -34.931641 A 2 2 0 0 0 0.3671875 -34.896484 A 2 2 0 0 0 0.25585938 -34.855469 A 2 2 0 0 0 0.14648438 -34.808594 A 2 2 0 0 0 0.041015625 -34.753906 A 2 2 0 0 0 -0.0625 -34.695312 A 2 2 0 0 0 -0.16210938 -34.628906 A 2 2 0 0 0 -0.25585938 -34.556641 A 2 2 0 0 0 -0.34570312 -34.478516 A 2 2 0 0 0 -0.43164062 -34.396484 A 2 2 0 0 0 -0.51171875 -34.308594 A 2 2 0 0 0 -0.58789062 -34.216797 A 2 2 0 0 0 -0.65625 -34.121094 A 2 2 0 0 0 -0.72070312 -34.019531 A 2 2 0 0 0 -0.77734375 -33.916016 A 2 2 0 0 0 -0.83007812 -33.808594 A 2 2 0 0 0 -0.875 -33.699219 A 2 2 0 0 0 -0.91210938 -33.585938 A 2 2 0 0 0 -0.94335938 -33.470703 A 2 2 0 0 0 -0.96875 -33.355469 A 2 2 0 0 0 -0.98632812 -33.236328 A 2 2 0 0 0 -0.99609375 -33.119141 A 2 2 0 0 0 -1 -33 L -1 -12.951172 A 2 2 0 0 0 -0.9921875 -12.832031 A 2 2 0 0 0 -0.97851562 -12.712891 A 2 2 0 0 0 -0.95898438 -12.595703 A 2 2 0 0 0 -0.93164062 -12.480469 A 2 2 0 0 0 -0.89648438 -12.367188 A 2 2 0 0 0 -0.85546875 -12.255859 A 2 2 0 0 0 -0.80859375 -12.146484 A 2 2 0 0 0 -0.75390625 -12.041016 A 2 2 0 0 0 -0.6953125 -11.9375 A 2 2 0 0 0 -0.62890625 -11.837891 A 2 2 0 0 0 -0.55664062 -11.744141 A 2 2 0 0 0 -0.47851562 -11.654297 A 2 2 0 0 0 -0.39648438 -11.568359 A 2 2 0 0 0 -0.30859375 -11.488281 A 2 2 0 0 0 -0.21679688 -11.412109 A 2 2 0 0 0 -0.12109375 -11.34375 A 2 2 0 0 0 -0.01953125 -11.279297 A 2 2 0 0 0 0.083984375 -11.222656 A 2 2 0 0 0 0.19140625 -11.169922 A 2 2 0 0 0 0.30078125 -11.125 A 2 2 0 0 0 0.4140625 -11.087891 A 2 2 0 0 0 0.52929688 -11.056641 A 2 2 0 0 0 0.64453125 -11.03125 A 2 2 0 0 0 0.76367188 -11.013672 A 2 2 0 0 0 0.88085938 -11.003906 A 2 2 0 0 0 1 -11 L 6 -11 L 6 -28 L 14 -28 L 14 -35 L 0.95117188 -35 z M 16 -35 L 16 -11 L 21.048828 -11 A 2 2 0 0 0 21.167969 -11.007812 A 2 2 0 0 0 21.287109 -11.021484 A 2 2 0 0 0 21.404297 -11.041016 A 2 2 0 0 0 21.519531 -11.068359 A 2 2 0 0 0 21.632812 -11.103516 A 2 2 0 0 0 21.744141 -11.144531 A 2 2 0 0 0 21.853516 -11.191406 A 2 2 0 0 0 21.958984 -11.246094 A 2 2 0 0 0 22.0625 -11.304688 A 2 2 0 0 0 22.162109 -11.371094 A 2 2 0 0 0 22.255859 -11.443359 A 2 2 0 0 0 22.345703 -11.521484 A 2 2 0 0 0 22.431641 -11.603516 A 2 2 0 0 0 22.511719 -11.691406 A 2 2 0 0 0 22.587891 -11.783203 A 2 2 0 0 0 22.65625 -11.878906 A 2 2 0 0 0 22.720703 -11.980469 A 2 2 0 0 0 22.777344 -12.083984 A 2 2 0 0 0 22.830078 -12.191406 A 2 2 0 0 0 22.875 -12.300781 A 2 2 0 0 0 22.912109 -12.414062 A 2 2 0 0 0 22.943359 -12.529297 A 2 2 0 0 0 22.96875 -12.644531 A 2 2 0 0 0 22.986328 -12.763672 A 2 2 0 0 0 22.996094 -12.880859 A 2 2 0 0 0 23 -13 L 23 -33.048828 A 2 2 0 0 0 22.992188 -33.167969 A 2 2 0 0 0 22.978516 -33.287109 A 2 2 0 0 0 22.958984 -33.404297 A 2 2 0 0 0 22.931641 -33.519531 A 2 2 0 0 0 22.896484 -33.632812 A 2 2 0 0 0 22.855469 -33.744141 A 2 2 0 0 0 22.808594 -33.853516 A 2 2 0 0 0 22.753906 -33.958984 A 2 2 0 0 0 22.695312 -34.0625 A 2 2 0 0 0 22.628906 -34.162109 A 2 2 0 0 0 22.556641 -34.255859 A 2 2 0 0 0 22.478516 -34.345703 A 2 2 0 0 0 22.396484 -34.431641 A 2 2 0 0 0 22.308594 -34.511719 A 2 2 0 0 0 22.216797 -34.587891 A 2 2 0 0 0 22.121094 -34.65625 A 2 2 0 0 0 22.019531 -34.720703 A 2 2 0 0 0 21.916016 -34.777344 A 2 2 0 0 0 21.808594 -34.830078 A 2 2 0 0 0 21.699219 -34.875 A 2 2 0 0 0 21.585938 -34.912109 A 2 2 0 0 0 21.470703 -34.943359 A 2 2 0 0 0 21.355469 -34.96875 A 2 2 0 0 0 21.236328 -34.986328 A 2 2 0 0 0 21.119141 -34.996094 A 2 2 0 0 0 21 -35 L 16 -35 z M 1 -34 L 13 -34 L 13 -29 L 5 -29 L 5 -12 L 1 -12 C 0.4460022 -12 0 -12.446004 0 -13 L 0 -33 C 0 -33.553996 0.4460022 -34 1 -34 z M 17 -34 L 21 -34 C 21.553996 -34 22 -33.553996 22 -33 L 22 -13 C 22 -12.446004 21.553996 -12 21 -12 L 17 -12 L 17 -34 z "
       fill="currentColor" />
    <path
       id="path485"
       style="opacity:0.15"
       class="ColorScheme-Text"
       d="m 1,-33 v 20 h 3 v -17 h 8 v -3 z m 17,0 v 20 h 3 v -20 z"
       fill="currentColor" />
    <path
       class="ColorScheme-Text"
       d="m 10,-24 v 11 h 2 v -11 z"
       fill="currentColor"
       id="path491"
       style="opacity:0.15;stroke-width:0.650443" />
  </g>
  <g
     id="16-16-manjaro-settings-manager">
    <rect
       x="3"
       y="27"
       width="16"
       height="16"
       fill="none"
       id="rect21" />
    <path
       id="path23"
       class="ColorScheme-Text"
       d="M 5 29 L 5 41 L 8 41 L 8 32 L 13 32 L 13 29 L 5 29 z M 14 29 L 14 41 L 17 41 L 17 29 L 14 29 z M 6 30 L 7 30 L 12 30 L 12 31 L 7 31 L 7 40 L 6 40 L 6 31 L 6 30 z M 15 30 L 16 30 L 16 40 L 15 40 L 15 30 z M 9 33 L 9 41 L 13 41 L 13 33 L 9 33 z M 10 34 L 12 34 L 12 40 L 10 40 L 10 34 z "
       fill="currentColor" />
    <path
       id="rect585"
       d="M 6 30 L 6 31 L 6 40 L 7 40 L 7 31 L 12 31 L 12 30 L 7 30 L 6 30 z M 15 30 L 15 40 L 16 40 L 16 30 L 15 30 z M 10 34 L 10 40 L 12 40 L 12 34 L 10 34 z "
       fill="currentColor"
       class="ColorScheme-Text"
       style="opacity:0.15" />
  </g>
</svg>
